img/interface/check-circle.svg

<svg width="25" height="25" viewBox="0 0 46 46" fill="none" xmlns="http://www.w3.org/2000/svg">
<path d="M23 0C10.2895 0 0 10.2895 0 23C0 35.7105 10.2895 46 23 46C35.7105 46 46 35.7105 46 23C45.8991 10.2895 35.6097 0 23 0ZM23 43.8816C11.3991 43.8816 2.01754 34.5 2.01754 23C2.01754 11.5 11.3991 2.01754 23 2.01754C34.6009 2.01754 43.9825 11.3991 43.9825 23C43.8816 34.5 34.5 43.8816 23 43.8816Z" fill="#E1752F"/>
<path d="M33.9957 14.5262L19.2675 29.2543L11.9035 21.8903C11.7018 21.6885 11.3991 21.5876 11.1974 21.5876C10.8947 21.5876 10.693 21.6885 10.4913 21.8903C10.0878 22.2938 10.0878 22.899 10.4913 23.3025L18.5615 31.3727C18.7632 31.5745 18.9649 31.6753 19.2675 31.6753C19.4693 31.6753 19.7719 31.5745 19.9737 31.3727L35.307 16.0394C35.7106 15.6359 35.7106 15.0306 35.307 14.6271C35.0044 14.2236 34.3992 14.2236 33.9957 14.5262Z" fill="#E1752F"/>
</svg>

<svg width="46" height="46" viewBox="0 0 46 46" fill="none" xmlns="http://www.w3.org/2000/svg"><path d="M23 0C10.29 0 0 10.29 0 23s10.29 23 23 23 23-10.29 23-23C45.9 10.29 35.61 0 23 0zm0 43.882C11.4 43.882 2.018 34.5 2.018 23 2.018 11.5 11.399 2.018 23 2.018c11.6 0 20.983 9.381 20.983 20.982C43.882 34.5 34.5 43.882 23 43.882z" fill="#151618"/><path d="M33.996 14.526L19.267 29.254l-7.364-7.364a1.09 1.09 0 00-.706-.302c-.302 0-.504.1-.706.302a.975.975 0 000 1.413l8.07 8.07c.202.202.404.302.706.302.202 0 .505-.1.707-.302l15.333-15.334a.975.975 0 000-1.412c-.303-.403-.908-.403-1.311-.1z" fill="#151618"/></svg>
